X: 10
T: Battering Ram, The
Z: Fernando Durbán Galnares
S: https://thesession.org/tunes/382#setting49264
R: jig
M: 6/8
L: 1/8
K: Gmaj
|:B|"G"dBG "D"BAG|"G"dBG G2B|"G"dBG "Am7"AGE|"D"GED D2B|
"G"dBG "D"BAG|"G"BdB BAG|"Am7"AGA "C"BAB|"D"GED D2:|
|:B|"G"deg "D"aga|"Em"bge edB|"G"deg "D"aga|"Em"bge "C"e2a|
"G"bag "D"age|"Em"ged "C"ege|"G"dBG "Am7"AGE|"D"GED D2:|
|:A|"G"B2G "D"A2G|"G"B2 DD2A|"G"BAG "Am7"AGE|"D"GED D2A|
"G"B2G "D"A2G|"Em"BdB BAG|"Am7"AGA "C"BAB|"D"GED D2:|

